app/assets/images/heroicon/solid/check-badge.svg

<svg width="24" height="24" viewBox="0 0 24 24" fill="none" xmlns="http://www.w3.org/2000/svg">
<path fill-rule="evenodd" clip-rule="evenodd" d="M12 2.25C10.6433 2.25 9.42705 2.85093 8.60288 3.79876C7.34987 3.71129 6.06488 4.1464 5.10554 5.10574C4.14621 6.06507 3.7111 7.35005 3.79855 8.60306C2.85085 9.42723 2.25 10.6434 2.25 12C2.25 13.3565 2.85079 14.5726 3.79841 15.3968C3.71086 16.6499 4.14596 17.935 5.10537 18.8945C6.0648 19.8539 7.34992 20.289 8.60304 20.2014C9.4272 21.1491 10.6434 21.75 12 21.75C13.3567 21.75 14.5729 21.1491 15.3971 20.2013C16.65 20.2886 17.9348 19.8535 18.8941 18.8943C19.8533 17.935 20.2884 16.6502 20.2011 15.3973C21.149 14.5731 21.75 13.3568 21.75 12C21.75 10.6435 21.1492 9.42735 20.2016 8.60319C20.2891 7.35009 19.854 6.06498 18.8946 5.10557C17.9352 4.14616 16.6501 3.71106 15.397 3.79861C14.5728 2.85087 13.3566 2.25 12 2.25ZM15.0588 10.3123C15.3694 10.0382 15.3989 9.56425 15.1248 9.2537C14.8507 8.94315 14.3768 8.9136 14.0662 9.1877C12.7083 10.3862 11.6072 11.8701 10.857 13.5463L9.53033 12.2197C9.23744 11.9268 8.76256 11.9268 8.46967 12.2197C8.17678 12.5126 8.17678 12.9874 8.46967 13.2803L10.6054 15.4161C10.7887 15.5993 11.0535 15.675 11.3059 15.6162C11.5583 15.5574 11.7624 15.3725 11.8459 15.1271C12.4835 13.2513 13.6034 11.5969 15.0588 10.3123Z" fill="#0F172A"/>
</svg>

<svg xmlns="http://www.w3.org/2000/svg" viewBox="0 0 24 24" fill="currentColor" aria-hidden="true">
  <path fill-rule="evenodd" d="M12 2.25a4.49 4.49 0 00-3.397 1.549 4.49 4.49 0 00-3.497 1.307 4.49 4.49 0 00-1.307 3.497A4.49 4.49 0 002.25 12c0 1.357.6 2.573 1.548 3.397a4.491 4.491 0 001.307 3.498A4.49 4.49 0 008.603 20.2 4.49 4.49 0 0012 21.75a4.49 4.49 0 003.397-1.549 4.491 4.491 0 003.497-1.307 4.491 4.491 0 001.307-3.497A4.49 4.49 0 0021.75 12a4.49 4.49 0 00-1.548-3.397 4.491 4.491 0 00-1.307-3.497 4.49 4.49 0 00-3.498-1.307A4.49 4.49 0 0012 2.25zm3.059 8.062a.75.75 0 10-.993-1.124 12.785 12.785 0 00-3.209 4.358L9.53 12.22a.75.75 0 00-1.06 1.06l2.135 2.136a.75.75 0 001.24-.289 11.264 11.264 0 013.214-4.815z" clip-rule="evenodd"/>
</svg>
